X:1
%%score { ( 1 4 ) | ( 2 3 ) }
L:1/8
Q:1/4=138
M:3/4
K:Bb
V:1 treble nm="Piano" snm="Pno."
V:4 treble 
V:2 bass
V:3 bass
[V:1]"^II. Menuetto""^Allegretto"!p! F2|[V:2]z2|[V:3]x2|[V:4]x2|
[V:1](B4 dB)|[V:2](B,FDFB,F)|[V:3]x6|[V:4]x6|
[V:1](fedcBA)|[V:2](CFEFCF)|[V:3]x6|[V:4]x6|
[V:1].B z (PcBcd)|[V:2](DFA,FB,F)|[V:3]x6|[V:4]x6|
[V:1](fedcBA)|[V:2](CFEFCF)|[V:3]x6|[V:4]x6|
[V:1].B z (PcBcd)|[V:2](DFA,FB,F)|[V:3]x6|[V:4]x6|
[V:1](fedcdB)|[V:2](A,FA,FB,F)|[V:3]x6|[V:4]x6|
[V:1]!f! (AG^FGBG)|[V:2]z2 B,2 B,2|[V:3]E,4 =E,2|[V:4]x6|
[V:1](F>D) C2 z2|[V:2](B,2 A,2) z2|[V:3]F,4 x2|[V:4]x6|
[V:1]!p! (b4 d'b)|[V:2][K:treble] (BfdfBf)|[V:3][K:treble] x6|[V:4]x6|
[V:1](f'e'd'c'ba)|[V:2](cfefcf)|[V:3]x6|[V:4]x6|
[V:1].b z (Pc'bc'd')|[V:2](dfAfBf)|[V:3]x6|[V:4]x6|
[V:1](f'e'd'c'ba)|[V:2](cfefcf)|[V:3]x6|[V:4]x6|
[V:1].b z (Pc'bc'd')|[V:2](dfAfBf)|[V:3]x6|[V:4]x6|
[V:1](f'e'd'c'd'b)|[V:2](AfAfBf)|[V:3]x6|[V:4]x6|
[V:1]!f! (agc'ag=e)|[V:2]z2 [CB]2 [CB]2|[V:3]x6|[V:4]x6|
[V:1]f2 z2::[V:2][FA]2 z2::[V:3]x4::[V:4]x4::
[V:1]!p! F2|[V:2]z2|[V:3]x2|[V:4]x2|
[V:1](f=efege)|[V:2](A4 B2|[V:3]x6|[V:4]x6|
[V:1](bagf=ef)|[V:2]c2) z2 z2|[V:3]x6|[V:4]x6|
[V:1](f=efege)|[V:2](A4 B2|[V:3]x6|[V:4]x6|
[V:1](bagf=ef)|[V:2]c2) z2 z2|[V:3]x6|[V:4]x6|
[V:1]!f! (ededfd)|[V:2][K:bass] (G4 A2|[V:3][K:bass] x6|[V:4]x6|
[V:1](_agfedc)|[V:2]B2) z2 z2|[V:3]x6|[V:4]x6|
[V:1](BAcBdc)|[V:2][F,E]6-|[V:3]x6|[V:4]x6|
[V:1](edfedc)|[V:2][F,E]2 z2 z2|[V:3]x6|[V:4]x6|
[V:1]!p! (B4 dB)|[V:2](B,FDFB,F)|[V:3]x6|[V:4]x6|
[V:1](fedcBA)|[V:2](CFEFCF)|[V:3]x6|[V:4]x6|
[V:1].B z (PcBcd)|[V:2](DFA,FB,F)|[V:3]x6|[V:4]x6|
[V:1](fedcBA)|[V:2](CFEFCF)|[V:3]x6|[V:4]x6|
[V:1].B z (PcBcd)|[V:2](DFA,FB,F)|[V:3]x6|[V:4]x6|
[V:1](fedcdB)|[V:2](A,FA,FB,F)|[V:3]x6|[V:4]x6|
[V:1]!f! (AGcecA)|[V:2]z2 [F,E]2 [F,E]2|[V:3]x6|[V:4]x6|
[V:1]B2 z2!fine!::[V:2][B,D]2 z2::[V:3]x4::[V:4]x4::
[V:1]"^Trio""_dolce" (f2|[V:2]z2|[V:3]x2|[V:4]x2|
[V:1]b4) (a2|[V:2][K:treble] z BAB z2|[V:3][K:treble] x6|[V:4]dfdfef|
[V:1]b4) (a2|[V:2]z BAB z2|[V:3]x6|[V:4]dfdfef|
[V:1]b2) .c'2 .d'2|[V:2]z BABAB|[V:3]x6|[V:4]dfefdf|
[V:1]e'4 z2|[V:2]z F=EF z2|[V:3]x6|[V:4]cf=efgf|
[V:1](c'4 =b2|[V:2]z F=EF z2|[V:3]x6|[V:4]efefdf|
[V:1]c'4) (=b2|[V:2]z F=EF z2|[V:3]x6|[V:4]efefdf|
[V:1]c'2) .e'2 .d'2|[V:2]z FAFBd|[V:3]x6|[V:4]efcfBf|
[V:1]c'2 z2::[V:2]F2 f2::[V:3]x4::[V:4]Af=ef::
[V:1](f2|[V:2]z2|[V:3]x2|[V:4]x2|
[V:1]f'4) (=e'2|[V:2]z f=ef z2|[V:3]x6|[V:4]ac'ac'bc'|
[V:1]f'4) (=e'2|[V:2]z f=ef z2|[V:3]x6|[V:4]ac'ac'bc'|
[V:1]e'2) .e'2 .d'2|[V:2]z f=efBf|[V:3]x6|[V:4]ac'ac'bd'|
[V:1]c'4 z2|[V:2]z F=EF z2|[V:3]x6|[V:4]af=efgf|
[V:1](b4 a2|[V:2][K:bass] z B,A,B, z2|[V:3][K:bass] x6|[V:4]dfdfef|
[V:1]b4) (a2|[V:2]z B,A,B, z2|[V:3]x6|[V:4]dfdfef|
[V:1]_a2) .g2 .=a2|[V:2]z B,A,B,B,,B,|[V:3]x6|[V:4]dfefef|
[V:1]b2 z2::[V:2]B,,2 B,2::[V:3]x4::[V:4]d2 z2::
[V:1][K:Eb][M:3/4]"^Trio""_sempre"!p! (3Bcd|[V:2][K:Eb][M:3/4] z2|[V:3][K:Eb][M:3/4] x2|[V:4][K:Eb][M:3/4] x2|
[V:1](3ede (3gfe (3dcB|[V:2][EG]2 z2 z2|[V:3]x6|[V:4]x6|
[V:1](3AGA (3cBA (3GFE|[V:2][A,C]2 z2 z2|[V:3]x6|[V:4]x6|
[V:1](3DEF (3B,CD (3EFG|[V:2](B,2 A,2 G,2)|[V:3]x6|[V:4]x6|
[V:1](3AFD (3B,CD (3EFG|[V:2]F,2 z2 z2|[V:3]x6|[V:4]x6|
[V:1](3AGA (3cBA (3GFE|[V:2][D,B,]2 [D,B,]2 [D,B,]2|[V:3]x6|[V:4]x6|
[V:1](3DFE (3DCB, (3=A,G,F,|[V:2][D,B,]2 z2 z2|[V:3]x6|[V:4]x6|
[V:1](3G,B,E (3DCB, (3CB,=A,|[V:2]E,,2 z2 F,,2|[V:3]x6|[V:4]x6|
[V:1]B,2 z2::[V:2]B,,,2 B,,2::[V:3]x4::[V:4]x4::
[V:1](3FG=A|[V:2]z2|[V:3]x2|[V:4]x2|
[V:1](3B=AB (3cBc (3dcd|[V:2](D2 C2 B,2|[V:3]x6|[V:4]x6|
[V:1](3efe (3dcB (3=AGF|[V:2]=A,2) z2 z2|[V:3]x6|[V:4]x6|
[V:1](3B=AB (3cBc (3dcd|[V:2](D2 C2 B,2|[V:3]x6|[V:4]x6|
[V:1](3efe (3dcB (3=AGF|[V:2]=A,2) z2 z2|[V:3]x6|[V:4]x6|
[V:1](3Bdc (3B=AG (3FED|[V:2]B,2 z2 z2|[V:3]x6|[V:4]x6|
[V:1](3CED (3CB,=A, (3G,F,E,|[V:2]E,,2 z2 z2|[V:3]x6|[V:4]x6|
[V:1][K:bass] (3D,F,B, (3C,E,B, (3C,E,=A,|[V:2]F,,2 F,,2 F,,2|[V:3]x6|[V:4][K:bass] x6|
[V:1]B,2 z2[K:treble] (3Bcd|[V:2]B,,,2 B,,2 z2|[V:3]x6|[V:4]x4[K:treble] x2|
[V:1](3ede (3gfe (3dcB|[V:2][EG]2 z2 z2|[V:3]x6|[V:4]x6|
[V:1](3AGA (3cBA (3GFE|[V:2][A,C]2 z2 z2|[V:3]x6|[V:4]x6|
[V:1](3DEF (3B,CD (3EFG|[V:2](B,2 A,2 G,2)|[V:3]x6|[V:4]x6|
[V:1](3AFD (3B,CD (3EFG|[V:2]F,2 z2 z2|[V:3]x6|[V:4]x6|
[V:1](3AGA (3cBA (3GFE|[V:2][D,B,]2 [D,B,]2 [D,B,]2|[V:3]x6|[V:4]x6|
[V:1](3DFE (3DCB, (3=A,G,F,|[V:2][D,B,]2 z2 z2|[V:3]x6|[V:4]x6|
[V:1](3G,B,E (3DCB, (3CB,=A,|[V:2]E,,2 z2 F,,2|[V:3]x6|[V:4]x6|
[V:1]B,2 z2 (3bag|[V:2]B,,,2 B,,2 z2|[V:3]x6|[V:4]x6|
[V:1](3fed (3cBA (3GFE|[V:2][D,B,]2 z2 z2|[V:3]x6|[V:4]x6|
[V:1](3DCB, (3A,G,F, (3bag|[V:2]B,,,2 z2 z2|[V:3]x6|[V:4]x6|
[V:1](3fed (3cBA (3GFE|[V:2][D,B,]2 z2 z2|[V:3]x6|[V:4]x6|
[V:1](3DCB, (3A,G,F, (3E,D,C,|[V:2]B,,,2 z2 z2|[V:3]x6|[V:4]x6|
[V:1][K:bass] (3B,,C,D, (3E,F,G, (3A,G,F,|[V:2]B,,,2 z2 z2|[V:3]x6|[V:4][K:bass] x6|
[V:1](3G,B,E (3A,CF (3F,A,D|[V:2]E,,2 A,,2 B,,2|[V:3]x6|[V:4]x6|
[V:1]E,2 z2!D.C.!:|][V:2]E,,2 E,2:|][V:3]x4:|][V:4]x4:|]
